lib/flags/ag-antigua-and-barbuda.svg

<svg xmlns="http://www.w3.org/2000/svg" fill="none" aria-hidden="true" viewBox="0 0 42 30"><g id="Country=AG - Antigua and Barbuda, Size=sm (36x24)" filter="url(#filter0_dd_91_29925)"><g clip-path="url(#clip0_91_29925)"><g id="flag"><mask id="mask0_91_29925" width="36" height="24" x="3" y="2" maskUnits="userSpaceOnUse" style="mask-type:alpha"><rect id="mask" width="36" height="24" x="3" y="2" fill="white"/></mask><g mask="url(#mask0_91_29925)"><g id="contents"><path id="middle" fill="#1B1B1B" fill-rule="evenodd" d="M3 2H39V26H3V2Z" clip-rule="evenodd"/><g id="mark"><path id="Star 25" fill="#F9D313" fill-rule="evenodd" d="M21 16L18.747 19.7994L18.8035 15.6039L14.6872 18.2547L17.042 14.494L11.8777 15.4711L16.0644 12.8901L10.875 12L16.0644 11.1099L11.8777 8.52893L17.042 9.50604L14.6872 5.74535L18.8035 8.39612L18.747 4.20058L21 8L23.253 4.20058L23.1965 8.39612L27.3128 5.74535L24.958 9.50604L30.1223 8.52893L25.9356 11.1099L31.125 12L25.9356 12.8901L30.1223 15.4711L24.958 14.494L27.3128 18.2547L23.1965 15.6039L23.253 19.7994L21 16Z" clip-rule="evenodd"/><rect id="Rectangle 10" width="22.5" height="10" x="9.75" y="16" fill="#F1F9FF"/><rect id="Rectangle 10_2" width="31.5" height="4" x="5.25" y="12" fill="#4A80E8"/><path id="blue" fill="#E31D1C" fill-rule="evenodd" d="M3 8L21 26L39 8V26H3V8Z" clip-rule="evenodd"/></g></g></g></g></g></g><defs><filter id="filter0_dd_91_29925" width="42" height="30" x="0" y="0" color-interpolation-filters="sRGB" filterUnits="userSpaceOnUse"><feFlood flood-opacity="0" result="BackgroundImageFix"/><feColorMatrix in="SourceAlpha" result="hardAlpha" values="0 0 0 0 0 0 0 0 0 0 0 0 0 0 0 0 0 0 127 0"/><feOffset dy="1"/><feGaussianBlur stdDeviation="1"/><feColorMatrix values="0 0 0 0 0.0627451 0 0 0 0 0.0941176 0 0 0 0 0.156863 0 0 0 0.06 0"/><feBlend in2="BackgroundImageFix" result="effect1_dropShadow_91_29925"/><feColorMatrix in="SourceAlpha" result="hardAlpha" values="0 0 0 0 0 0 0 0 0 0 0 0 0 0 0 0 0 0 127 0"/><feOffset dy="1"/><feGaussianBlur stdDeviation="1.5"/><feColorMatrix values="0 0 0 0 0.0627451 0 0 0 0 0.0941176 0 0 0 0 0.156863 0 0 0 0.1 0"/><feBlend in2="effect1_dropShadow_91_29925" result="effect2_dropShadow_91_29925"/><feBlend in="SourceGraphic" in2="effect2_dropShadow_91_29925" result="shape"/></filter><clipPath id="clip0_91_29925"><rect width="36" height="24" x="3" y="2" fill="white" rx="2"/></clipPath></defs></svg>

<svg xmlns="http://www.w3.org/2000/svg" fill="none" aria-hidden="true" viewBox="0 0 42 30"><g filter="url(#a)"><g clip-path="url(#b)"><mask id="c" width="36" height="24" x="3" y="2" maskUnits="userSpaceOnUse" style="mask-type:alpha"><path fill="#fff" d="M3 2h36v24H3z"/></mask><g mask="url(#c)"><path fill="#1B1B1B" fill-rule="evenodd" d="M3 2h36v24H3V2Z" clip-rule="evenodd"/><path fill="#F9D313" fill-rule="evenodd" d="m21 16-2.253 3.8.056-4.196-4.116 2.65 2.355-3.76-5.164.977 4.186-2.58L10.875 12l5.19-.89-4.187-2.581 5.164.977-2.355-3.76 4.117 2.65-.057-4.195L21 8l2.253-3.8-.056 4.196 4.116-2.65-2.355 3.76 5.164-.977-4.186 2.58 5.189.891-5.19.89 4.187 2.581-5.164-.977 2.355 3.76-4.116-2.65.056 4.195L21 16Z" clip-rule="evenodd"/><path fill="#F1F9FF" d="M9.75 16h22.5v10H9.75z"/><path fill="#4A80E8" d="M5.25 12h31.5v4H5.25z"/><path fill="#E31D1C" fill-rule="evenodd" d="m3 8 18 18L39 8v18H3V8Z" clip-rule="evenodd"/></g></g></g><defs><clipPath id="b"><rect width="36" height="24" x="3" y="2" fill="#fff" rx="2"/></clipPath><filter id="a" width="42" height="30" x="0" y="0" color-interpolation-filters="sRGB" filterUnits="userSpaceOnUse"><feFlood flood-opacity="0" result="BackgroundImageFix"/><feColorMatrix in="SourceAlpha" result="hardAlpha" values="0 0 0 0 0 0 0 0 0 0 0 0 0 0 0 0 0 0 127 0"/><feOffset dy="1"/><feGaussianBlur stdDeviation="1"/><feColorMatrix values="0 0 0 0 0.0627451 0 0 0 0 0.0941176 0 0 0 0 0.156863 0 0 0 0.06 0"/><feBlend in2="BackgroundImageFix" result="effect1_dropShadow_91_29925"/><feColorMatrix in="SourceAlpha" result="hardAlpha" values="0 0 0 0 0 0 0 0 0 0 0 0 0 0 0 0 0 0 127 0"/><feOffset dy="1"/><feGaussianBlur stdDeviation="1.5"/><feColorMatrix values="0 0 0 0 0.0627451 0 0 0 0 0.0941176 0 0 0 0 0.156863 0 0 0 0.1 0"/><feBlend in2="effect1_dropShadow_91_29925" result="effect2_dropShadow_91_29925"/><feBlend in="SourceGraphic" in2="effect2_dropShadow_91_29925" result="shape"/></filter></defs></svg>
